X:495
T:Murphy's hornpipe 1
R:Hornpipe
O:Ireland
B:Kerr's 4th p30
S:Kerr's 4th p30
Z:Transcription, chords:Mike Long
M:4/4
L:1/8
K:D
(3(ABc)|\
"D"d2AF d2AF|"D"d2fd "A"ecAg|"D"fgaf "G"gfed|"A"c2A2 A2(3(ABc)|\
"D"d2AF d2AF|
"D"d2fd "A"ecAg|"D"fgaf "A"bgec|"D"d2d2 d2:|\
|:fg|\
"D"afde fgaf|"G"gecd "A"efge|
"D"fgaf "G"gfed|"A"c2A2 A2fg|\
"D"afde fgaf|"G"gecd "A"efge|"D"fgaf "A"bgec|"D"d2d2 d2:|
